icons/_assets/copy.svg

<?xml version="1.0" encoding="UTF-8"?>
<svg width="100px" height="100px" viewBox="0 0 100 100" version="1.1" xmlns="http://www.w3.org/2000/svg" xmlns:xlink="http://www.w3.org/1999/xlink">
    <title>duplicate</title>
    <g id="duplicate" stroke="none" stroke-width="1" fill="none" fill-rule="evenodd">
        <path d="M0,99.9998667 L100,99.9998667 L100,-0.000133333333 L0,-0.000133333333 L0,99.9998667 Z M1.34217378,98.6576929 L98.6578262,98.6576929 L98.6578262,1.34204045 L1.34217378,1.34204045 L1.34217378,98.6576929 Z" id="outline" fill="#FFFFFF" opacity="0"></path>
        <path d="M79.4394929,69.0004784 L88.1730055,68.0006291 C89.2125752,67.8822447 90,66.9979272 90,65.9467304 L90,21.9804612 C90,21.8078767 89.973236,21.6409974 89.9309771,21.4769708 C89.919708,21.4299023 89.9028045,21.3871127 89.8873095,21.3414705 C89.8464592,21.2131018 89.7929312,21.0918648 89.7281342,20.976333 C89.7027788,20.9292645 89.6802407,20.8864749 89.6520681,20.842259 C89.553464,20.6939219 89.4421821,20.5541427 89.3069535,20.4329056 L72.5498783,5.51789257 C72.4146498,5.39808181 72.261109,5.30394479 72.1019337,5.22264463 C72.0596747,5.20267617 72.0174158,5.18556035 71.9737482,5.16701821 C71.8427456,5.11139178 71.7089256,5.07145486 71.5708798,5.04578113 C71.5328467,5.03864954 71.4962223,5.02581267 71.4567806,5.02153371 C71.2905622,4.99871262 71.1229351,4.99300734 70.9524907,5.01154948 L36.8269945,8.91680966 C35.7874248,9.03662042 35,9.92093792 35,10.9707084 L35,18.115138 L39.1188372,17.662995 L39.1188372,12.8177909 L69.1254962,9.38464215 L69.1254962,23.8988597 C69.1254962,24.4879292 69.3748239,25.0498987 69.8129082,25.4421363 C70.1932386,25.7830265 70.6806249,25.9670216 71.1849148,25.9670216 C71.2609809,25.9670216 71.3398643,25.9627426 71.417339,25.9527584 L85.8811628,24.2982289 L85.8811628,64.1010742 L79.4296325,64.8399072 L79.4394929,69.0004784 Z M83.1174286,20.4514477 L73.2443335,21.581092 L73.2443335,11.6624729 L83.1174286,20.4514477 Z" id="Fill-1" fill="#000000"></path>
        <path d="M69.9253884,38.7120649 C69.9126944,38.6614032 69.8943587,38.6163706 69.8774335,38.565709 C69.8322995,38.4292039 69.7744716,38.2983279 69.7039497,38.173081 C69.675741,38.1238266 69.6517635,38.0773867 69.6193235,38.0295396 C69.5121303,37.8705182 69.3908327,37.7199405 69.2441472,37.5890645 L50.9648806,21.557459 C50.8153743,21.426583 50.6475322,21.3266669 50.4754589,21.2394162 C50.4289145,21.2168999 50.38237,21.2000127 50.3344152,21.1803109 C50.1933714,21.1197984 50.0452755,21.0761731 49.8943587,21.0480277 C49.8548665,21.0409913 49.8139638,21.0283259 49.7716507,21.0226968 C49.5897043,20.9987733 49.404937,20.9917369 49.2187593,21.0114387 L11.9930894,25.2107286 C10.8576874,25.3401973 10.0001415,26.2901037 10.0001415,27.4201405 L10.0001415,92.7765154 C10.0001415,93.4097863 10.2737664,94.0135046 10.7490837,94.4356852 C11.1637523,94.8015751 11.6968975,95 12.2455576,95 C12.3315943,95 12.4162205,94.9943709 12.5008468,94.98452 L68.0086042,88.7249887 C69.1425957,88.5969272 70.0001415,87.6470208 70.0001415,86.5155768 L70.0001415,39.2538634 C70.0001415,39.0681039 69.9705224,38.8879735 69.9253884,38.7120649 L69.9253884,38.7120649 Z M14.4923841,90.2842425 L14.4923841,29.4043895 L47.2272219,25.7131236 L47.2272219,41.3155121 C47.2272219,41.9501903 47.5008468,42.5525013 47.9775745,42.9746819 C48.3908327,43.3419791 48.9239779,43.5389967 49.4740484,43.5389967 C49.5586747,43.5389967 49.6433009,43.5347749 49.7279272,43.5235167 L65.5064885,41.7447291 L65.5064885,84.5327351 L14.4923841,90.2842425 Z M62.4909737,37.6087662 L51.720875,38.8246464 L51.720875,28.1603639 L62.4909737,37.6087662 Z M56.38237,67.0614937 C57.617913,66.9193596 58.730748,67.7974952 58.8689709,69.0175972 C59.0100146,70.2376992 58.12426,71.3395907 56.8915379,71.4789103 L23.8802544,75.2025434 C23.7928073,75.2123942 23.7067706,75.216616 23.6235548,75.216616 C22.4966154,75.216616 21.5248242,74.3806984 21.395064,73.2450325 C21.2526098,72.0249305 22.1383644,70.9244464 23.3710865,70.7865341 L56.38237,67.0614937 Z M56.38237,52.9902136 C57.617913,52.8466721 58.730748,53.7262151 58.8689709,54.9463171 C59.0100146,56.1664191 58.12426,57.2683105 56.8915379,57.4076301 L23.8802544,61.1284487 C23.7928073,61.1397068 23.7067706,61.1439286 23.6235548,61.1439286 C22.4966154,61.1439286 21.5248242,60.3066037 21.395064,59.1723451 C21.2526098,57.9508359 22.1383644,56.8503517 23.3710865,56.7124394 L56.38237,52.9902136 Z M37.0283503,40.3923438 C38.2624829,40.2502096 39.3739074,41.1283453 39.5135407,42.3484473 C39.6545844,43.5685493 38.7688298,44.6690335 37.5361077,44.8083531 L23.9747537,46.3380542 C23.8873066,46.3479051 23.8026803,46.3535342 23.7166437,46.3535342 C22.5897043,46.3535342 21.6193235,45.5162093 21.4867424,44.3819507 C21.3485195,43.1618487 22.2342741,42.0599572 23.4669963,41.9220449 L37.0283503,40.3923438 Z" id="Fill-3" fill="#000000"></path>
    </g>
</svg>

<svg width="100" height="100" xmlns="http://www.w3.org/2000/svg"><g id="duplicate" stroke="none" stroke-width="1" fill="#000" fill-rule="evenodd"><path d="M79.44 69l8.733-1A2.065 2.065 0 0 0 90 65.948V21.98c0-.172-.027-.339-.069-.503-.011-.047-.028-.09-.044-.136a1.958 1.958 0 0 0-.159-.365c-.025-.047-.048-.09-.076-.134a2.11 2.11 0 0 0-.345-.41L72.55 5.519a2.125 2.125 0 0 0-.448-.295c-.042-.02-.085-.037-.128-.056a1.927 1.927 0 0 0-.403-.121c-.038-.007-.075-.02-.114-.024a2.054 2.054 0 0 0-.505-.01L36.827 8.917A2.067 2.067 0 0 0 35 10.97v7.144l4.119-.452v-4.845l30.006-3.433v14.514c0 .589.25 1.15.688 1.543a2.051 2.051 0 0 0 1.604.51l14.464-1.654v39.803l-6.451.739.01 4.16zm3.677-48.549l-9.873 1.13v-9.919l9.873 8.79z" id="Fill-1"/><path d="M69.925 38.712c-.012-.05-.03-.096-.048-.146a2.217 2.217 0 0 0-.173-.393c-.028-.05-.052-.096-.085-.143a2.319 2.319 0 0 0-.375-.44l-18.28-16.033c-.149-.13-.316-.23-.489-.318-.046-.022-.093-.039-.14-.059a2.086 2.086 0 0 0-.44-.132c-.04-.007-.081-.02-.123-.025a2.34 2.34 0 0 0-.553-.012l-37.226 4.2A2.234 2.234 0 0 0 10 27.42v65.356c0 .633.274 1.237.75 1.659a2.261 2.261 0 0 0 1.75.549l55.509-6.26A2.232 2.232 0 0 0 70 86.515V39.255c0-.186-.03-.366-.075-.542zM14.492 90.284v-60.88l32.735-3.69v15.602c0 .634.274 1.237.75 1.659a2.249 2.249 0 0 0 1.75.549l15.78-1.78v42.789l-51.015 5.751zM62.491 37.61l-10.77 1.216V28.16l10.77 9.449zM56.382 67.06a2.235 2.235 0 0 1 2.487 1.957 2.229 2.229 0 0 1-1.977 2.46L23.88 75.204a2.236 2.236 0 0 1-2.485-1.958 2.223 2.223 0 0 1 1.976-2.458l33.011-3.726zm0-14.07a2.234 2.234 0 0 1 2.487 1.955 2.229 2.229 0 0 1-1.977 2.462l-33.012 3.72a2.237 2.237 0 0 1-2.485-1.956 2.224 2.224 0 0 1 1.976-2.46l33.011-3.722zM37.028 40.391a2.236 2.236 0 0 1 2.486 1.956c.14 1.22-.745 2.321-1.978 2.46l-13.561 1.53a2.24 2.24 0 0 1-2.488-1.956 2.23 2.23 0 0 1 1.98-2.46l13.561-1.53z" id="Fill-3"/></g></svg>
